X: 1
T: Hawthorn, The
M: 9/8
L: 1/8
R: slip jig
K: Gmaj
dBG GBG AFD|dBG GBd e2g|dBG GBG AFD|gbg faf ~e3:|
def ~g3 edB|def ~g3 a2a|1def ~g3 edB|gbg faf ~e3:|2 bag agf gfe||
